X: 1
T: Pajdusko
O: Bulgaria
R: Pajdushko
Z: 1998 by John Chambers <jc@trillian.mit.edu> http://trillian.mit.edu/~jc/music/
%%staffsep 45
M: 5/8
L: 1/8
K: C
"A"\
|: "C"cG ~c2G | "G"dG ~d2G | "C"ec fed | ec fef | "G"~g2 fed | ef gfg | "C"~e2 dcB |1,3 cd ~e2G :|2,4 cG c3 :|
"B"\
|: "G"~g2 fed | ef gfg | "C"~e2 dcB | cd ~e2G | "G"~g2 fed | ef gfg | "C"~e2 dcB | "C"cG Hc3 :|
K:D^f_B_e
"C"\
|: "D"dA gfe | dc ~d2A | dA gfe | de fga | dA gfg | ad bab | "Cm"~c'2 bag | "D"fe ~d3 :|
"D"\
|: "D"dA gfg | ad bab | "Cm"~c'2 bag | "D"fe def | "Cm"cz c3- | c2 fga | "D"~f2 edc |1 dA fga :|2 dA ~d3 ||
"E"\
|: "Cm"cz c3- | c2 fga | "D"~f2 edc | dA fga | "Cm"cz c3- | c2 fga | "D"~f2 edc | dA ~d3 :|
"F"\
|: "D"~f2 edc | dA fga | ~f2 edc | dA  ~d2A | ~f2 edc | dA fga | ~f2 edc | dA  ~d3 :|
